48x48/apps/distributor-logo-rhel.svg

<svg xmlns="http://www.w3.org/2000/svg" width="48" height="48" version="1.1">
 <path style="opacity:0.2" d="m 24.414062,8 c -1.331153,0 -1.726733,1.7121728 -3.345703,1.7121728 -1.547015,0 -2.699587,-1.2841297 -4.138671,-1.2841295 -1.403108,0 -2.300807,0.9264027 -2.984376,2.8529757 0,0 -1.943472,5.422695 -2.195312,6.207595 -0.03598,0.142707 -0.899251,1.962643 -0.863281,2.105352 C 7.0371671,19.772353 2,20.485508 2,24.873811 2,32.080618 19.232997,41 32.904297,41 43.373633,41 46,36.292084 46,32.617326 46,29.656114 43.444914,26.373968 38.839844,24.376042 L 38.335938,22.233889 36.609375,14.813828 C 36.213626,13.172674 35.890709,12.423393 32.976562,10.996302 30.745984,9.8546324 25.853148,8 24.414062,8 Z"/>
 <path style="fill:#e73232" d="m 24.414062,7 c -1.331153,0 -1.726733,1.7121728 -3.345703,1.7121728 -1.547015,0 -2.699587,-1.2841297 -4.138671,-1.2841295 -1.403108,0 -2.300807,0.9264027 -2.984376,2.8529757 0,0 -1.943472,5.422695 -2.195312,6.207595 -0.03598,0.142707 -0.899251,1.962643 -0.863281,2.105352 C 7.0371671,18.772353 2,19.485508 2,23.873811 2,31.080618 19.232997,40 32.904297,40 43.373633,40 46,35.292084 46,31.617326 46,28.656114 43.444914,25.373968 38.839844,23.376042 L 38.335938,21.233889 36.609375,13.813828 C 36.213626,12.172674 35.890709,11.423393 32.976562,9.996302 30.745984,8.8546324 25.853148,7 24.414062,7 Z"/>
 <path style="opacity:0.1" d="m 38.885977,24.624693 c 0.395748,1.906787 0.395748,2.086672 0.395748,2.338512 C 39.281725,30.201144 35.602617,32 30.817662,32 20.02453,32 10.426389,25.668029 10.426389,21.494685 c 0,-0.575634 0.107932,-1.151267 0.359772,-1.690924 l 0.86345,-2.086672 c -0.03598,0.143908 -0.07195,0.287817 -0.03598,0.431725 0,2.12265 8.48285,9.102208 19.743684,9.102208 2.878169,0 7.132911,-0.611611 7.132911,-4.029436 0,-0.25184 0,-0.539656 -0.07195,-0.791496 z"/>
 <path style="fill:#f4f4f7;opacity:0.2" d="M 24.414062 7 C 23.082909 7 22.687329 8.7128906 21.068359 8.7128906 C 19.521344 8.7128906 18.368772 7.4277342 16.929688 7.4277344 C 15.52658 7.4277344 14.628882 8.354677 13.945312 10.28125 C 13.945312 10.28125 12.00184 15.703381 11.75 16.488281 C 11.71402 16.630988 10.850749 18.451041 10.886719 18.59375 C 7.0371669 18.772137 2 19.484744 2 23.873047 C 2 24.036317 2.0196615 24.202283 2.0371094 24.367188 C 2.4194326 20.438086 7.1933515 19.764899 10.886719 19.59375 C 10.850749 19.451041 11.71402 17.630988 11.75 17.488281 C 12.00184 16.703381 13.945312 11.28125 13.945312 11.28125 C 14.628882 9.354677 15.52658 8.4277344 16.929688 8.4277344 C 18.368772 8.4277342 19.521344 9.7128906 21.068359 9.7128906 C 22.687329 9.7128906 23.082909 8 24.414062 8 C 25.853148 8 30.745984 9.8544241 32.976562 10.996094 C 35.890709 12.423185 36.213626 13.173299 36.609375 14.814453 L 38.335938 22.234375 L 38.839844 24.376953 C 43.207434 26.271848 45.727899 29.3204 45.976562 32.15625 C 45.98934 31.975039 46 31.794244 46 31.617188 C 46 28.655976 43.444914 25.374879 38.839844 23.376953 L 38.335938 21.234375 L 36.609375 13.814453 C 36.213626 12.173299 35.890709 11.423185 32.976562 9.9960938 C 30.745984 8.8544241 25.853148 7 24.414062 7 z"/>
 <path style="fill:#17191e" d="m 38.885977,23.624693 c 0.395748,1.906787 0.395748,2.086672 0.395748,2.338512 C 39.281725,29.201144 35.602617,31 30.817662,31 20.02453,31 10.426389,24.668029 10.426389,20.494685 c 0,-0.575634 0.107932,-1.151267 0.359772,-1.690924 l 0.86345,-2.086672 c -0.03598,0.143908 -0.07195,0.287817 -0.03598,0.431725 0,2.12265 8.48285,9.102208 19.743684,9.102208 2.878169,0 7.132911,-0.611611 7.132911,-4.029436 0,-0.25184 0,-0.539656 -0.07195,-0.791496 z"/>
</svg>

<svg xmlns="http://www.w3.org/2000/svg" width="48" height="48"><path style="opacity:.2" d="M24.414 8c-1.331 0-1.727 1.712-3.346 1.712-1.547 0-2.7-1.284-4.138-1.284-1.403 0-2.301.926-2.985 2.853 0 0-1.943 5.423-2.195 6.208-.036.142-.9 1.962-.863 2.105-3.85.178-8.887.892-8.887 5.28C2 32.08 19.233 41 32.904 41 43.374 41 46 36.292 46 32.617c0-2.96-2.555-6.243-7.16-8.241l-.504-2.142-1.727-7.42c-.395-1.641-.718-2.39-3.632-3.818C30.746 9.855 25.853 8 24.414 8z"/><path style="fill:#e73232" d="M24.414 7c-1.331 0-1.727 1.712-3.346 1.712-1.547 0-2.7-1.284-4.138-1.284-1.403 0-2.301.926-2.985 2.853 0 0-1.943 5.423-2.195 6.208-.036.142-.9 1.962-.863 2.105-3.85.178-8.887.892-8.887 5.28C2 31.08 19.233 40 32.904 40 43.374 40 46 35.292 46 31.617c0-2.96-2.555-6.243-7.16-8.241l-.504-2.142-1.727-7.42c-.395-1.641-.718-2.39-3.632-3.818C30.746 8.855 25.853 7 24.414 7z"/><path style="opacity:.1" d="M38.886 24.625c.396 1.906.396 2.086.396 2.338 0 3.238-3.68 5.037-8.464 5.037-10.793 0-20.392-6.332-20.392-10.505 0-.576.108-1.152.36-1.691l.864-2.087c-.036.144-.072.288-.036.432 0 2.122 8.482 9.102 19.743 9.102 2.878 0 7.133-.612 7.133-4.03 0-.251 0-.54-.072-.79z"/><path style="fill:#f4f4f7;opacity:.2" d="M24.414 7c-1.331 0-1.727 1.713-3.346 1.713-1.547 0-2.7-1.285-4.138-1.285-1.403 0-2.301.927-2.985 2.853 0 0-1.943 5.422-2.195 6.207-.036.143-.9 1.963-.863 2.106-3.85.178-8.887.89-8.887 5.279 0 .163.02.33.037.494.382-3.929 5.156-4.602 8.85-4.773-.036-.143.827-1.963.863-2.106.252-.785 2.195-6.207 2.195-6.207.684-1.926 1.582-2.853 2.985-2.853 1.439 0 2.591 1.285 4.138 1.285 1.62 0 2.015-1.713 3.346-1.713 1.44 0 6.332 1.854 8.563 2.996 2.914 1.427 3.237 2.177 3.632 3.818l1.727 7.42.504 2.143c4.367 1.895 6.888 4.943 7.137 7.78.012-.182.023-.363.023-.54 0-2.961-2.555-6.242-7.16-8.24l-.504-2.143-1.727-7.42c-.395-1.64-.718-2.39-3.632-3.818C30.746 8.854 25.853 7 24.414 7z"/><path style="fill:#17191e" d="M38.886 23.625c.396 1.906.396 2.086.396 2.338 0 3.238-3.68 5.037-8.464 5.037-10.793 0-20.392-6.332-20.392-10.505 0-.576.108-1.152.36-1.691l.864-2.087c-.036.144-.072.288-.036.432 0 2.122 8.482 9.102 19.743 9.102 2.878 0 7.133-.612 7.133-4.03 0-.251 0-.54-.072-.79z"/></svg>
